icons/ba.svg

<?xml version="1.0" ?>
<svg xmlns="http://www.w3.org/2000/svg" xmlns:ev="http://www.w3.org/2001/xml-events" xmlns:xlink="http://www.w3.org/1999/xlink" baseProfile="full" height="588px" version="1.1" viewBox="-1028.8933054827874 -789.1308465250286 12295.530944127639 12034.381436634532" width="600px">
	<defs/>
	<path d="M 3076.0,10213.0 L 3027.0,10185.0 L 3024.0,10101.0 C 3022.0,10054.0 3016.0,10012.0 3010.0,10006.0 C 3003.0,9999.0 2921.0,9996.0 2765.0,9997.0 C 2511.0,10000.0 2501.0,10001.0 2434.0,10059.0 C 2417.0,10075.0 2380.0,10091.0 2347.0,10099.0 C 2292.0,10111.0 2289.0,10111.0 2233.0,10080.0 C 2201.0,10063.0 2154.0,10034.0 2129.0,10016.0 C 2088.0,9985.0 2082.0,9976.0 2070.0,9920.0 C 2060.0,9872.0 2051.0,9855.0 2031.0,9843.0 C 1872.0,9747.0 1872.0,9746.0 1815.0,9627.0 C 1779.0,9554.0 1759.0,9497.0 1754.0,9461.0 C 1751.0,9430.0 1737.0,9380.0 1723.0,9349.0 L 1699.0,9294.0 L 1632.0,9277.0 C 1595.0,9268.0 1524.0,9258.0 1473.0,9255.0 L 1381.0,9249.0 L 1365.0,9286.0 C 1357.0,9306.0 1321.0,9362.0 1285.0,9410.0 C 1225.0,9490.0 1211.0,9503.0 1098.0,9573.0 C 1030.0,9615.0 969.0,9653.0 962.0,9658.0 C 951.0,9665.0 951.0,9679.0 960.0,9731.0 L 972.0,9795.0 L 907.0,9855.0 C 821.0,9933.0 752.0,10024.0 740.0,10074.0 C 725.0,10133.0 702.0,10194.0 686.0,10215.0 C 673.0,10233.0 669.0,10233.0 589.0,10217.0 C 543.0,10207.0 466.0,10200.0 418.0,10200.0 L 332.0,10200.0 L 246.0,10128.0 C 191.0,10082.0 162.0,10050.0 164.0,10040.0 C 167.0,10032.0 176.0,9990.0 186.0,9948.0 C 203.0,9872.0 203.0,9871.0 183.0,9853.0 C 165.0,9837.0 164.0,9827.0 170.0,9750.0 C 175.0,9687.0 173.0,9655.0 162.0,9627.0 C 152.0,9601.0 151.0,9586.0 158.0,9577.0 C 175.0,9557.0 176.0,9439.0 160.0,9401.0 L 146.0,9367.0 L 199.0,9320.0 C 229.0,9294.0 248.0,9270.0 243.0,9267.0 C 237.0,9263.0 220.0,9216.0 205.0,9161.0 L 177.0,9062.0 L 88.0,9055.0 C -15.0,9047.0 -12.0,9057.0 51.0,8921.0 C 72.0,8875.0 90.0,8836.0 90.0,8834.0 C 90.0,8832.0 70.0,8830.0 45.0,8830.0 C 20.0,8830.0 0.0,8827.0 0.0,8824.0 C 0.0,8821.0 14.0,8785.0 31.0,8744.0 C 53.0,8691.0 61.0,8660.0 56.0,8639.0 C 52.0,8619.0 57.0,8596.0 70.0,8569.0 C 88.0,8535.0 89.0,8527.0 76.0,8507.0 C 69.0,8495.0 60.0,8462.0 57.0,8434.0 C 52.0,8386.0 55.0,8377.0 113.0,8270.0 C 163.0,8180.0 182.0,8154.0 212.0,8137.0 L 250.0,8116.0 L 299.0,8140.0 C 348.0,8163.0 352.0,8163.0 472.0,8151.0 C 656.0,8133.0 638.0,8142.0 694.0,8037.0 C 763.0,7908.0 842.0,7798.0 910.0,7738.0 C 966.0,7689.0 969.0,7684.0 991.0,7600.0 C 1011.0,7519.0 1016.0,7511.0 1052.0,7489.0 C 1095.0,7463.0 1095.0,7459.0 1064.0,7378.0 L 1046.0,7330.0 L 1075.0,7300.0 C 1106.0,7267.0 1106.0,7268.0 1064.0,7157.0 L 1046.0,7110.0 L 1128.0,7030.0 C 1173.0,6987.0 1210.0,6944.0 1210.0,6935.0 C 1210.0,6926.0 1199.0,6899.0 1185.0,6876.0 C 1152.0,6819.0 1162.0,6783.0 1212.0,6778.0 L 1245.0,6775.0 L 1255.0,6675.0 C 1261.0,6616.0 1262.0,6565.0 1257.0,6550.0 C 1251.0,6534.0 1253.0,6470.0 1263.0,6379.0 L 1278.0,6233.0 L 1447.0,6002.0 L 1615.0,5771.0 L 1676.0,5770.0 C 1711.0,5770.0 1744.0,5776.0 1755.0,5784.0 C 1765.0,5791.0 1781.0,5796.0 1789.0,5794.0 C 1798.0,5792.0 1821.0,5788.0 1841.0,5785.0 C 1878.0,5780.0 1878.0,5779.0 1890.0,5712.0 C 1896.0,5675.0 1916.0,5617.0 1932.0,5583.0 C 1966.0,5517.0 1978.0,5510.0 2065.0,5510.0 C 2144.0,5510.0 2170.0,5500.0 2171.0,5471.0 C 2171.0,5457.0 2188.0,5398.0 2208.0,5340.0 L 2245.0,5235.0 L 2296.0,5227.0 C 2344.0,5219.0 2347.0,5217.0 2356.0,5182.0 L 2365.0,5145.0 L 2444.0,5133.0 C 2518.0,5122.0 2526.0,5118.0 2570.0,5075.0 L 2617.0,5029.0 L 2623.0,4901.0 C 2627.0,4831.0 2633.0,4753.0 2636.0,4727.0 L 2643.0,4681.0 L 2845.0,4541.0 L 3047.0,4401.0 L 3117.0,4250.0 L 3187.0,4098.0 L 3469.0,3839.0 L 3752.0,3580.0 L 3805.0,3580.0 C 3835.0,3580.0 3861.0,3584.0 3865.0,3589.0 C 3868.0,3594.0 3890.0,3606.0 3914.0,3615.0 C 3951.0,3629.0 3966.0,3630.0 4012.0,3621.0 C 4060.0,3611.0 4070.0,3604.0 4108.0,3555.0 L 4151.0,3500.0 L 4109.0,3450.0 C 4068.0,3402.0 4068.0,3400.0 4084.0,3375.0 C 4096.0,3356.0 4109.0,3350.0 4135.0,3350.0 C 4165.0,3350.0 4170.0,3347.0 4170.0,3327.0 C 4170.0,3315.0 4147.0,3277.0 4119.0,3242.0 C 4069.0,3181.0 4068.0,3179.0 4084.0,3155.0 C 4096.0,3137.0 4109.0,3130.0 4134.0,3130.0 L 4168.0,3130.0 L 4204.0,2938.0 C 4224.0,2832.0 4243.0,2733.0 4246.0,2719.0 C 4249.0,2704.0 4262.0,2678.0 4275.0,2660.0 L 4299.0,2627.0 L 4322.0,2675.0 L 4345.0,2722.0 L 4405.0,2716.0 C 4459.0,2711.0 4468.0,2706.0 4496.0,2673.0 C 4524.0,2639.0 4529.0,2625.0 4539.0,2530.0 C 4546.0,2472.0 4554.0,2411.0 4557.0,2394.0 L 4562.0,2362.0 L 4653.0,2355.0 L 4743.0,2348.0 L 4970.0,2155.0 C 5188.0,1969.0 5197.0,1960.0 5215.0,1906.0 C 5225.0,1876.0 5231.0,1848.0 5228.0,1845.0 C 5225.0,1842.0 5178.0,1823.0 5124.0,1804.0 C 5031.0,1771.0 5022.0,1769.0 4971.0,1779.0 C 4941.0,1785.0 4915.0,1788.0 4913.0,1786.0 C 4911.0,1784.0 4960.0,1753.0 5022.0,1716.0 L 5134.0,1648.0 L 5195.0,1663.0 C 5254.0,1677.0 5308.0,1671.0 5296.0,1651.0 C 5293.0,1646.0 5230.0,1621.0 5156.0,1595.0 C 5027.0,1550.0 5020.0,1548.0 4969.0,1559.0 C 4941.0,1565.0 4915.0,1569.0 4913.0,1567.0 C 4911.0,1565.0 4960.0,1533.0 5022.0,1496.0 L 5134.0,1428.0 L 5195.0,1443.0 C 5255.0,1458.0 5255.0,1458.0 5350.0,1424.0 L 5445.0,1390.0 L 5535.0,1415.0 C 5585.0,1429.0 5628.0,1440.0 5632.0,1440.0 C 5646.0,1440.0 5711.0,1317.0 5727.0,1260.0 C 5739.0,1217.0 5757.0,1185.0 5797.0,1138.0 C 5885.0,1036.0 5897.0,1024.0 5991.0,945.0 C 6080.0,870.0 6081.0,870.0 6139.0,870.0 L 6197.0,870.0 L 6436.0,686.0 C 6669.0,506.0 6676.0,500.0 6729.0,416.0 C 6759.0,369.0 6788.0,330.0 6794.0,330.0 C 6799.0,330.0 6852.0,342.0 6911.0,356.0 L 7019.0,381.0 L 7144.0,300.0 L 7270.0,218.0 L 7414.0,281.0 C 7554.0,341.0 7558.0,344.0 7549.0,367.0 C 7544.0,380.0 7540.0,406.0 7540.0,425.0 C 7540.0,458.0 7541.0,459.0 7595.0,470.0 C 7625.0,476.0 7650.0,484.0 7650.0,487.0 C 7650.0,490.0 7638.0,535.0 7624.0,587.0 C 7598.0,685.0 7599.0,699.0 7638.0,700.0 C 7654.0,700.0 7655.0,691.0 7607.0,876.0 L 7565.0,1038.0 L 7465.0,1150.0 C 7409.0,1213.0 7362.0,1274.0 7359.0,1290.0 C 7354.0,1315.0 7358.0,1322.0 7396.0,1350.0 C 7420.0,1367.0 7441.0,1384.0 7444.0,1389.0 C 7447.0,1393.0 7439.0,1434.0 7426.0,1481.0 L 7403.0,1565.0 L 7427.0,1595.0 C 7440.0,1612.0 7490.0,1674.0 7538.0,1735.0 L 7626.0,1845.0 L 7695.0,1863.0 C 7734.0,1873.0 7782.0,1886.0 7802.0,1891.0 L 7840.0,1901.0 L 7839.0,2068.0 C 7838.0,2208.0 7841.0,2242.0 7856.0,2273.0 C 7870.0,2302.0 7871.0,2316.0 7863.0,2343.0 C 7853.0,2376.0 7856.0,2381.0 7921.0,2471.0 L 7989.0,2565.0 L 7990.0,2680.0 L 7991.0,2795.0 L 8145.0,2937.0 C 8230.0,3016.0 8314.0,3087.0 8333.0,3096.0 C 8367.0,3112.0 8368.0,3112.0 8437.0,3071.0 L 8507.0,3029.0 L 8520.0,2954.0 L 8532.0,2878.0 L 8614.0,2840.0 C 8682.0,2809.0 8710.0,2802.0 8771.0,2800.0 C 8912.0,2794.0 8906.0,2792.0 8919.0,2860.0 C 8930.0,2916.0 8929.0,2922.0 8905.0,2970.0 C 8886.0,3007.0 8883.0,3020.0 8894.0,3020.0 C 8902.0,3020.0 8912.0,3041.0 8919.0,3079.0 L 8931.0,3139.0 L 8882.0,3237.0 C 8846.0,3309.0 8831.0,3351.0 8827.0,3396.0 C 8821.0,3451.0 8778.0,3590.0 8759.0,3615.0 C 8755.0,3621.0 8704.0,3641.0 8646.0,3660.0 L 8540.0,3694.0 L 8540.0,3731.0 L 8540.0,3767.0 L 8625.0,3785.0 C 8672.0,3795.0 8713.0,3801.0 8716.0,3797.0 C 8719.0,3794.0 8724.0,3764.0 8727.0,3731.0 C 8730.0,3697.0 8736.0,3670.0 8739.0,3670.0 C 8742.0,3671.0 8774.0,3677.0 8810.0,3685.0 C 8846.0,3693.0 8897.0,3699.0 8925.0,3700.0 C 8966.0,3700.0 8978.0,3704.0 8996.0,3727.0 L 9017.0,3754.0 L 9106.0,3744.0 C 9177.0,3736.0 9209.0,3737.0 9264.0,3749.0 L 9332.0,3764.0 L 9325.0,3799.0 C 9304.0,3914.0 9302.0,3903.0 9370.0,3967.0 C 9443.0,4035.0 9450.0,4039.0 9450.0,4010.0 C 9450.0,3986.0 9453.0,3986.0 9547.0,4025.0 C 9579.0,4038.0 9606.0,4047.0 9607.0,4046.0 C 9608.0,4045.0 9606.0,4004.0 9602.0,3956.0 L 9594.0,3867.0 L 9624.0,3849.0 C 9663.0,3825.0 9677.0,3825.0 9685.0,3848.0 C 9688.0,3857.0 9710.0,3886.0 9733.0,3911.0 C 9771.0,3953.0 9783.0,3959.0 9849.0,3974.0 C 9926.0,3991.0 9990.0,4023.0 9990.0,4044.0 C 9990.0,4051.0 9983.0,4079.0 9975.0,4106.0 C 9956.0,4169.0 9956.0,4205.0 9976.0,4235.0 C 9988.0,4254.0 9990.0,4275.0 9986.0,4332.0 C 9979.0,4424.0 9979.0,4439.0 9986.0,4523.0 C 9991.0,4581.0 9988.0,4600.0 9965.0,4659.0 L 9938.0,4728.0 L 9874.0,4740.0 L 9811.0,4752.0 L 9805.0,4809.0 C 9802.0,4840.0 9794.0,4894.0 9787.0,4930.0 L 9775.0,4995.0 L 9662.0,5035.0 C 9531.0,5081.0 9541.0,5070.0 9439.0,5295.0 C 9374.0,5437.0 9370.0,5466.0 9422.0,5427.0 C 9440.0,5413.0 9471.0,5399.0 9490.0,5395.0 C 9509.0,5392.0 9600.0,5371.0 9693.0,5348.0 C 9859.0,5308.0 9861.0,5308.0 9945.0,5320.0 C 10042.0,5334.0 10036.0,5324.0 10020.0,5449.0 C 10013.0,5504.0 10013.0,5526.0 10022.0,5531.0 C 10028.0,5535.0 10077.0,5541.0 10132.0,5545.0 C 10186.0,5549.0 10233.0,5556.0 10236.0,5561.0 C 10239.0,5566.0 10238.0,5611.0 10234.0,5662.0 L 10227.0,5753.0 L 10116.0,5747.0 C 9981.0,5740.0 9994.0,5755.0 10132.0,5765.0 C 10186.0,5769.0 10233.0,5776.0 10236.0,5781.0 C 10239.0,5786.0 10238.0,5832.0 10234.0,5882.0 L 10227.0,5973.0 L 10106.0,5966.0 L 9984.0,5960.0 L 9890.0,6047.0 C 9838.0,6094.0 9795.0,6140.0 9796.0,6149.0 C 9796.0,6158.0 9799.0,6189.0 9803.0,6218.0 L 9809.0,6270.0 L 9733.0,6270.0 L 9658.0,6270.0 L 9561.0,6359.0 L 9465.0,6448.0 L 9446.0,6552.0 C 9429.0,6651.0 9426.0,6658.0 9396.0,6676.0 C 9336.0,6712.0 9199.0,6750.0 9128.0,6750.0 L 9062.0,6750.0 L 8987.0,6813.0 C 8886.0,6896.0 8875.0,6943.0 8944.0,6991.0 C 8974.0,7011.0 8979.0,7021.0 8989.0,7084.0 C 8997.0,7132.0 8998.0,7173.0 8991.0,7210.0 C 8985.0,7246.0 8986.0,7283.0 8993.0,7319.0 C 9002.0,7364.0 9007.0,7374.0 9031.0,7382.0 C 9049.0,7388.0 9069.0,7409.0 9085.0,7437.0 L 9110.0,7482.0 L 9080.0,7520.0 L 9050.0,7558.0 L 9107.0,7566.0 L 9164.0,7575.0 L 9183.0,7645.0 C 9199.0,7704.0 9208.0,7720.0 9236.0,7739.0 L 9270.0,7763.0 L 9270.0,7878.0 L 9270.0,7994.0 L 9306.0,8031.0 C 9340.0,8066.0 9343.0,8075.0 9353.0,8160.0 C 9361.0,8227.0 9361.0,8257.0 9353.0,8270.0 C 9335.0,8298.0 9356.0,8431.0 9382.0,8451.0 C 9394.0,8461.0 9407.0,8489.0 9415.0,8529.0 C 9426.0,8583.0 9426.0,8599.0 9414.0,8634.0 C 9401.0,8670.0 9401.0,8685.0 9414.0,8743.0 C 9427.0,8807.0 9426.0,8814.0 9405.0,8883.0 L 9382.0,8955.0 L 9273.0,8996.0 C 9214.0,9018.0 9150.0,9044.0 9133.0,9053.0 C 9089.0,9076.0 9019.0,9068.0 8860.0,9020.0 C 8791.0,8999.0 8706.0,8974.0 8670.0,8964.0 C 8623.0,8952.0 8578.0,8928.0 8510.0,8880.0 C 8458.0,8844.0 8410.0,8811.0 8403.0,8807.0 C 8396.0,8803.0 8360.0,8796.0 8323.0,8791.0 L 8255.0,8783.0 L 8187.0,8847.0 C 8112.0,8917.0 8088.0,8930.0 8031.0,8930.0 C 8011.0,8930.0 7987.0,8936.0 7978.0,8943.0 C 7936.0,8977.0 7913.0,9050.0 7945.0,9050.0 C 7953.0,9050.0 7964.0,9067.0 7972.0,9091.0 C 7983.0,9130.0 7982.0,9136.0 7956.0,9185.0 C 7933.0,9227.0 7929.0,9244.0 7934.0,9274.0 C 7938.0,9295.0 7938.0,9325.0 7935.0,9342.0 L 7928.0,9372.0 L 7840.0,9366.0 L 7752.0,9359.0 L 7760.0,9395.0 C 7767.0,9425.0 7765.0,9432.0 7749.0,9441.0 C 7718.0,9457.0 7678.0,9547.0 7685.0,9582.0 C 7696.0,9630.0 7681.0,9712.0 7656.0,9743.0 L 7634.0,9771.0 L 7605.0,9698.0 C 7589.0,9658.0 7570.0,9610.0 7563.0,9591.0 L 7549.0,9557.0 L 7530.0,9588.0 C 7513.0,9615.0 7505.0,9619.0 7448.0,9625.0 C 7391.0,9631.0 7378.0,9629.0 7315.0,9600.0 C 7247.0,9569.0 7244.0,9569.0 7185.0,9581.0 C 7142.0,9590.0 7115.0,9603.0 7085.0,9630.0 C 6988.0,9717.0 6980.0,9720.0 6877.0,9720.0 C 6787.0,9720.0 6781.0,9721.0 6744.0,9751.0 C 6723.0,9768.0 6668.0,9802.0 6622.0,9827.0 L 6538.0,9873.0 L 6499.0,9834.0 L 6460.0,9795.0 L 6476.0,9737.0 C 6487.0,9692.0 6489.0,9671.0 6480.0,9646.0 C 6470.0,9615.0 6467.0,9613.0 6392.0,9602.0 C 6350.0,9595.0 6274.0,9590.0 6223.0,9590.0 C 6135.0,9590.0 6131.0,9591.0 6110.0,9617.0 C 6096.0,9635.0 6091.0,9651.0 6096.0,9665.0 C 6099.0,9676.0 6104.0,9701.0 6107.0,9721.0 C 6111.0,9754.0 6108.0,9759.0 6077.0,9779.0 C 6045.0,9799.0 6040.0,9799.0 6006.0,9785.0 C 5979.0,9773.0 5953.0,9771.0 5910.0,9776.0 C 5853.0,9782.0 5850.0,9781.0 5807.0,9746.0 C 5754.0,9703.0 5725.0,9642.0 5715.0,9553.0 C 5708.0,9491.0 5707.0,9490.0 5672.0,9480.0 C 5622.0,9466.0 5615.0,9467.0 5534.0,9491.0 C 5477.0,9508.0 5439.0,9529.0 5356.0,9591.0 C 5297.0,9635.0 5244.0,9681.0 5238.0,9695.0 C 5225.0,9724.0 5172.0,9760.0 5144.0,9760.0 C 5133.0,9760.0 5075.0,9746.0 5013.0,9729.0 L 4901.0,9698.0 L 4872.0,9719.0 C 4856.0,9730.0 4822.0,9745.0 4795.0,9752.0 L 4748.0,9765.0 L 4710.0,9720.0 C 4689.0,9695.0 4670.0,9677.0 4667.0,9680.0 C 4664.0,9683.0 4646.0,9704.0 4627.0,9727.0 L 4592.0,9769.0 L 4563.0,9725.0 C 4530.0,9674.0 4512.0,9677.0 4504.0,9736.0 C 4494.0,9803.0 4494.0,9803.0 4449.0,9773.0 C 4409.0,9747.0 4406.0,9747.0 4342.0,9758.0 C 4276.0,9769.0 4275.0,9770.0 4202.0,9849.0 C 4113.0,9946.0 4096.0,9950.0 4038.0,9888.0 L 3998.0,9845.0 L 3888.0,9847.0 L 3778.0,9850.0 L 3676.0,9943.0 C 3554.0,10055.0 3457.0,10131.0 3416.0,10146.0 C 3393.0,10154.0 3374.0,10153.0 3341.0,10143.0 C 3317.0,10136.0 3293.0,10130.0 3289.0,10130.0 C 3285.0,10130.0 3269.0,10154.0 3253.0,10183.0 C 3225.0,10234.0 3224.0,10235.0 3175.0,10238.0 C 3136.0,10239.0 3114.0,10234.0 3076.0,10213.0" fill="pink"/>
</svg>

<?xml version="1.0" standalone="no"?>
<!DOCTYPE svg PUBLIC "-//W3C//DTD SVG 20010904//EN"
 "http://www.w3.org/TR/2001/REC-SVG-20010904/DTD/svg10.dtd">
<svg version="1.0" xmlns="http://www.w3.org/2000/svg"
 width="1024.000000pt" height="1024.000000pt" viewBox="0 0 1024.000000 1024.000000"
 preserveAspectRatio="xMidYMid meet">
<metadata>
Created by potrace 1.10, written by Peter Selinger 2001-2011
</metadata>
<g transform="translate(0.000000,1024.000000) scale(0.100000,-0.100000)"
fill="#000000" stroke="none">
<path d="M3076 10213 l-49 -28 -3 -84 c-2 -47 -8 -89 -14 -95 -7 -7 -89 -10
-245 -9 -254 3 -264 4 -331 62 -17 16 -54 32 -87 40 -55 12 -58 12 -114 -19
-32 -17 -79 -46 -104 -64 -41 -31 -47 -40 -59 -96 -10 -48 -19 -65 -39 -77
-159 -96 -159 -97 -216 -216 -36 -73 -56 -130 -61 -166 -3 -31 -17 -81 -31
-112 l-24 -55 -67 -17 c-37 -9 -108 -19 -159 -22 l-92 -6 -16 37 c-8 20 -44
76 -80 124 -60 80 -74 93 -187 163 -68 42 -129 80 -136 85 -11 7 -11 21 -2 73
l12 64 -65 60 c-86 78 -155 169 -167 219 -15 59 -38 120 -54 141 -13 18 -17
18 -97 2 -46 -10 -123 -17 -171 -17 l-86 0 -86 -72 c-55 -46 -84 -78 -82 -88
3 -8 12 -50 22 -92 17 -76 17 -77 -3 -95 -18 -16 -19 -26 -13 -103 5 -63 3
-95 -8 -123 -10 -26 -11 -41 -4 -50 17 -20 18 -138 2 -176 l-14 -34 53 -47
c30 -26 49 -50 44 -53 -6 -4 -23 -51 -38 -106 l-28 -99 -89 -7 c-103 -8 -100
2 -37 -134 21 -46 39 -85 39 -87 0 -2 -20 -4 -45 -4 -25 0 -45 -3 -45 -6 0 -3
14 -39 31 -80 22 -53 30 -84 25 -105 -4 -20 1 -43 14 -70 18 -34 19 -42 6 -62
-7 -12 -16 -45 -19 -73 -5 -48 -2 -57 56 -164 50 -90 69 -116 99 -133 l38 -21
49 24 c49 23 53 23 173 11 184 -18 166 -9 222 -114 69 -129 148 -239 216 -299
56 -49 59 -54 81 -138 20 -81 25 -89 61 -111 43 -26 43 -30 12 -111 l-18 -48
29 -30 c31 -33 31 -32 -11 -143 l-18 -47 82 -80 c45 -43 82 -86 82 -95 0 -9
-11 -36 -25 -59 -33 -57 -23 -93 27 -98 l33 -3 10 -100 c6 -59 7 -110 2 -125
-6 -16 -4 -80 6 -171 l15 -146 169 -231 168 -231 61 -1 c35 0 68 6 79 14 10 7
26 12 34 10 9 -2 32 -6 52 -9 37 -5 37 -6 49 -73 6 -37 26 -95 42 -129 34 -66
46 -73 133 -73 79 0 105 -10 106 -39 0 -14 17 -73 37 -131 l37 -105 51 -8 c48
-8 51 -10 60 -45 l9 -37 79 -12 c74 -11 82 -15 126 -58 l47 -46 6 -128 c4 -70
10 -148 13 -174 l7 -46 202 -140 202 -140 70 -151 70 -152 282 -259 283 -259
53 0 c30 0 56 4 60 9 3 5 25 17 49 26 37 14 52 15 98 6 48 -10 58 -17 96 -66
l43 -55 -42 -50 c-41 -48 -41 -50 -25 -75 12 -19 25 -25 51 -25 30 0 35 -3 35
-23 0 -12 -23 -50 -51 -85 -50 -61 -51 -63 -35 -87 12 -18 25 -25 50 -25 l34
0 36 -192 c20 -106 39 -205 42 -219 3 -15 16 -41 29 -59 l24 -33 23 48 23 47
60 -6 c54 -5 63 -10 91 -43 28 -34 33 -48 43 -143 7 -58 15 -119 18 -136 l5
-32 91 -7 90 -7 227 -193 c218 -186 227 -195 245 -249 10 -30 16 -58 13 -61
-3 -3 -50 -22 -104 -41 -93 -33 -102 -35 -153 -25 -30 6 -56 9 -58 7 -2 -2 47
-33 109 -70 l112 -68 61 15 c59 14 113 8 101 -12 -3 -5 -66 -30 -140 -56 -129
-45 -136 -47 -187 -36 -28 6 -54 10 -56 8 -2 -2 47 -34 109 -71 l112 -68 61
15 c60 15 60 15 155 -19 l95 -34 90 25 c50 14 93 25 97 25 14 0 79 -123 95
-180 12 -43 30 -75 70 -122 88 -102 100 -114 194 -193 89 -75 90 -75 148 -75
l58 0 239 -184 c233 -180 240 -186 293 -270 30 -47 59 -86 65 -86 5 0 58 12
117 26 l108 25 125 -81 126 -82 144 63 c140 60 144 63 135 86 -5 13 -9 39 -9
58 0 33 1 34 55 45 30 6 55 14 55 17 0 3 -12 48 -26 100 -26 98 -25 112 14
113 16 0 17 -9 -31 176 l-42 162 -100 112 c-56 63 -103 124 -106 140 -5 25 -1
32 37 60 24 17 45 34 48 39 3 4 -5 45 -18 92 l-23 84 24 30 c13 17 63 79 111
140 l88 110 69 18 c39 10 87 23 107 28 l38 10 -1 167 c-1 140 2 174 17 205 14
29 15 43 7 70 -10 33 -7 38 58 128 l68 94 1 115 1 115 154 142 c85 79 169 150
188 159 34 16 35 16 104 -25 l70 -42 13 -75 12 -76 82 -38 c68 -31 96 -38 157
-40 141 -6 135 -8 148 60 11 56 10 62 -14 110 -19 37 -22 50 -11 50 8 0 18 21
25 59 l12 60 -49 98 c-36 72 -51 114 -55 159 -6 55 -49 194 -68 219 -4 6 -55
26 -113 45 l-106 34 0 37 0 36 85 18 c47 10 88 16 91 12 3 -3 8 -33 11 -66 3
-34 9 -61 12 -61 3 1 35 7 71 15 36 8 87 14 115 15 41 0 53 4 71 27 l21 27 89
-10 c71 -8 103 -7 158 5 l68 15 -7 35 c-21 115 -23 104 45 168 73 68 80 72 80
43 0 -24 3 -24 97 15 32 13 59 22 60 21 1 -1 -1 -42 -5 -90 l-8 -89 30 -18
c39 -24 53 -24 61 -1 3 9 25 38 48 63 38 42 50 48 116 63 77 17 141 49 141 70
0 7 -7 35 -15 62 -19 63 -19 99 1 129 12 19 14 40 10 97 -7 92 -7 107 0 191 5
58 2 77 -21 136 l-27 69 -64 12 -63 12 -6 57 c-3 31 -11 85 -18 121 l-12 65
-113 40 c-131 46 -121 35 -223 260 -65 142 -69 171 -17 132 18 -14 49 -28 68
-32 19 -3 110 -24 203 -47 166 -40 168 -40 252 -28 97 14 91 4 75 129 -7 55
-7 77 2 82 6 4 55 10 110 14 54 4 101 11 104 16 3 5 2 50 -2 101 l-7 91 -111
-6 c-135 -7 -122 8 16 18 54 4 101 11 104 16 3 5 2 51 -2 101 l-7 91 -121 -7
-122 -6 -94 87 c-52 47 -95 93 -94 102 0 9 3 40 7 69 l6 52 -76 0 -75 0 -97
89 -96 89 -19 104 c-17 99 -20 106 -50 124 -60 36 -197 74 -268 74 l-66 0 -75
63 c-101 83 -112 130 -43 178 30 20 35 30 45 93 8 48 9 89 2 126 -6 36 -5 73
2 109 9 45 14 55 38 63 18 6 38 27 54 55 l25 45 -30 38 -30 38 57 8 57 9 19
70 c16 59 25 75 53 94 l34 24 0 115 0 116 36 37 c34 35 37 44 47 129 8 67 8
97 0 110 -18 28 3 161 29 181 12 10 25 38 33 78 11 54 11 70 -1 105 -13 36
-13 51 0 109 13 64 12 71 -9 140 l-23 72 -109 41 c-59 22 -123 48 -140 57 -44
23 -114 15 -273 -33 -69 -21 -154 -46 -190 -56 -47 -12 -92 -36 -160 -84 -52
-36 -100 -69 -107 -73 -7 -4 -43 -11 -80 -16 l-68 -8 -68 64 c-75 70 -99 83
-156 83 -20 0 -44 6 -53 13 -42 34 -65 107 -33 107 8 0 19 17 27 41 11 39 10
45 -16 94 -23 42 -27 59 -22 89 4 21 4 51 1 68 l-7 30 -88 -6 -88 -7 8 36 c7
30 5 37 -11 46 -31 16 -71 106 -64 141 11 48 -4 130 -29 161 l-22 28 -29 -73
c-16 -40 -35 -88 -42 -107 l-14 -34 -19 31 c-17 27 -25 31 -82 37 -57 6 -70 4
-133 -25 -68 -31 -71 -31 -130 -19 -43 9 -70 22 -100 49 -97 87 -105 90 -208
90 -90 0 -96 1 -133 31 -21 17 -76 51 -122 76 l-84 46 -39 -39 -39 -39 16 -58
c11 -45 13 -66 4 -91 -10 -31 -13 -33 -88 -44 -42 -7 -118 -12 -169 -12 -88 0
-92 1 -113 27 -14 18 -19 34 -14 48 3 11 8 36 11 56 4 33 1 38 -30 58 -32 20
-37 20 -71 6 -27 -12 -53 -14 -96 -9 -57 6 -60 5 -103 -30 -53 -43 -82 -104
-92 -193 -7 -62 -8 -63 -43 -73 -50 -14 -57 -13 -138 11 -57 17 -95 38 -178
100 -59 44 -112 90 -118 104 -13 29 -66 65 -94 65 -11 0 -69 -14 -131 -31
l-112 -31 -29 21 c-16 11 -50 26 -77 33 l-47 13 -38 -45 c-21 -25 -40 -43 -43
-40 -3 3 -21 24 -40 47 l-35 42 -29 -44 c-33 -51 -51 -48 -59 11 -10 67 -10
67 -55 37 -40 -26 -43 -26 -107 -15 -66 11 -67 12 -140 91 -89 97 -106 101
-164 39 l-40 -43 -110 2 -110 3 -102 93 c-122 112 -219 188 -260 203 -23 8
-42 7 -75 -3 -24 -7 -48 -13 -52 -13 -4 0 -20 24 -36 53 -28 51 -29 52 -78 55
-39 1 -61 -4 -99 -25z"/>
</g>
</svg>
